X: 175
T:Miss MacDonald
M:C|
L:1/8
S:Ir-Trad; Henrik Norbeck , 4/97
R:reel
Z:id:hn-reel-686
K:G
BG~G2 BdcA|BGBd g2fg|aA~A2 ABcA|1 BGBd gedc:|2 BGBd gedB||
|:~G3D ~E3D|~G3D EDEF|~G3D ~E3D|1 (3efg dB cABA:|2 (3efg dB cdef||
gd (3Bcd g2gf|edef gdBd|gd (3Bcd g2gf|edef g3f|
gd (3Bcd gd (3Bcd|g2af gdBd|gbaf gfed|(3efg af g2Bd||
|:eBdB cBAB|GB~B2 GB~B2|1 eBdB cBAB|GEDE G2Bd:|2 ~e3g ~f3e|dfaf gedc||
